logos/svg.svg

<?xml version="1.0" encoding="UTF-8" standalone="no" ?>
<svg width="256px" height="256px" viewBox="0 0 256 256" version="1.1" xmlns="http://www.w3.org/2000/svg" xmlns:xlink="http://www.w3.org/1999/xlink" preserveAspectRatio="xMidYMid">
    <g>
        <path d="M245.23538,153.523831 C259.246873,139.512338 259.246423,116.713014 245.23493,102.70107 C238.447775,95.9134648 229.422873,92.1757746 219.823775,92.1757746 C217.544563,92.1757746 215.300507,92.3835493 213.111887,92.7932394 C222.650141,86.2688451 228.831099,75.2978028 228.831099,63.0985915 C228.831099,43.2829296 212.709859,27.1616901 192.894197,27.1616901 C180.670648,27.1616901 169.680676,33.3674366 163.161239,42.9376901 C165.31831,31.5605634 161.934873,19.4010141 153.291718,10.7578592 C146.504563,3.97025352 137.479662,0.232112676 127.880563,0.232112676 C118.281465,0.232112676 109.256563,3.97025352 102.469408,10.7578592 C93.8258028,19.4010141 90.4428169,31.5610141 92.5998873,42.9381408 C86.0804507,33.3678873 75.0900282,27.1616901 62.8664789,27.1616901 C43.0508169,27.1616901 26.9295775,43.2829296 26.9295775,63.0985915 C26.9295775,75.2982535 33.1100845,86.2688451 42.648338,92.7927887 C40.4597183,92.3835493 38.2165634,92.1757746 35.9369014,92.1757746 C26.3378028,92.1757746 17.3133521,95.9139155 10.5257465,102.701521 C3.73814085,109.489127 0,118.514028 0,128.112676 C0,137.711775 3.73814085,146.736225 10.5257465,153.524282 C17.3133521,160.311437 26.3382535,164.049577 35.9369014,164.049577 C38.2161127,164.049577 40.4592676,163.841803 42.648338,163.432113 C33.1100845,169.956507 26.9295775,180.927549 26.9295775,193.126761 C26.9295775,212.942423 43.0508169,229.063211 62.8664789,229.063211 C75.0900282,229.063211 86.0809014,222.857465 92.5998873,213.287211 C90.4428169,224.664789 93.8262535,236.824789 102.469408,245.467944 C109.257014,252.255099 118.281915,255.993239 127.880563,255.993239 C137.479662,255.993239 146.504563,252.255099 153.291718,245.467493 C161.934873,236.824338 165.317859,224.663887 163.160789,213.286761 C169.680225,222.857014 180.670648,229.063211 192.894197,229.063211 C212.709859,229.063211 228.831099,212.942423 228.831099,193.126761 C228.831099,180.927549 222.650141,169.956507 213.112338,163.432113 C215.300958,163.841803 217.544563,164.049577 219.823775,164.049577 C229.422873,164.049577 238.447775,160.311437 245.23538,153.523831" fill="#000000"></path>
        <path d="M234.391437,113.538254 C226.34231,105.489577 213.292169,105.489577 205.243042,113.538254 L163.05893,113.538254 L192.887887,83.7097465 C204.270873,83.7097465 213.498592,74.4820282 213.498592,63.0985915 C213.498592,51.7156056 204.270873,42.4874366 192.887887,42.4874366 C181.504451,42.4874366 172.276732,51.7156056 172.276732,63.0985915 L142.448225,92.9275493 L142.448225,50.7434366 C150.496901,42.6943099 150.496901,29.644169 142.447775,21.5950423 C134.398648,13.5459155 121.348507,13.5459155 113.29938,21.5950423 C105.250254,29.644169 105.250254,42.6943099 113.29938,50.7434366 L113.29938,92.9275493 L83.4708732,63.0985915 C83.4708732,51.7156056 74.2431549,42.4874366 62.8597183,42.4874366 C51.4767324,42.4874366 42.2485634,51.7156056 42.2485634,63.0985915 C42.2485634,74.4820282 51.4767324,83.7097465 62.8597183,83.7097465 L92.6882254,113.538254 L50.5045634,113.538254 C42.4549859,105.489127 29.4048451,105.489577 21.3557183,113.538704 C13.3065915,121.587831 13.3065915,134.637972 21.3557183,142.687099 C29.4048451,150.736225 42.4554366,150.736225 50.5045634,142.687099 L92.6882254,142.687099 L62.8597183,172.515606 C51.4767324,172.515606 42.2485634,181.743324 42.2485634,193.126761 C42.2485634,204.509746 51.4767324,213.737915 62.8597183,213.737915 C74.2431549,213.737915 83.4708732,204.509746 83.4708732,193.126761 L113.29938,163.298254 L113.29938,205.481915 C105.250254,213.531042 105.250254,226.581634 113.29938,234.630761 C121.348507,242.679887 134.399099,242.679887 142.448225,234.630761 C150.496901,226.581634 150.496901,213.531042 142.448225,205.481915 L142.448225,163.298254 L172.276732,193.126761 C172.276732,204.509746 181.504451,213.737915 192.887887,213.737915 C204.270873,213.737915 213.498592,204.509746 213.498592,193.126761 C213.498592,181.743324 204.270873,172.515606 192.887887,172.515606 L163.05893,142.687099 L205.243042,142.687099 C213.292169,150.736225 226.34231,150.736225 234.391437,142.687099 C242.440563,134.637972 242.440563,121.58738 234.391437,113.538254" fill="#FFB13B"></path>
    </g>
</svg>

<svg preserveAspectRatio="xMidYMid" viewBox="0 0 256 256" xmlns="http://www.w3.org/2000/svg">
  <path d="M245.235 153.524c14.012-14.012 14.011-36.811 0-50.823-6.787-6.788-15.812-10.525-25.411-10.525-2.28 0-4.523.208-6.712.617 9.538-6.524 15.72-17.495 15.72-29.694 0-19.816-16.122-35.937-35.938-35.937-12.223 0-23.213 6.205-29.733 15.776 2.157-11.377-1.226-23.537-9.87-32.18C146.506 3.97 137.48.232 127.882.232c-9.6 0-18.624 3.738-25.412 10.526-8.643 8.643-12.026 20.803-9.87 32.18-6.519-9.57-17.509-15.776-29.733-15.776-19.815 0-35.936 16.12-35.936 35.937 0 12.2 6.18 23.17 15.718 29.694a36.487 36.487 0 0 0-6.711-.617c-9.6 0-18.624 3.738-25.411 10.526C3.738 109.489 0 118.514 0 128.112c0 9.6 3.738 18.624 10.526 25.412 6.787 6.787 15.812 10.526 25.41 10.526 2.28 0 4.523-.208 6.712-.618-9.538 6.525-15.718 17.496-15.718 29.695 0 19.815 16.12 35.936 35.936 35.936 12.224 0 23.215-6.206 29.734-15.776-2.157 11.378 1.226 23.538 9.87 32.18 6.787 6.788 15.812 10.526 25.41 10.526 9.6 0 18.625-3.738 25.412-10.526 8.643-8.643 12.026-20.803 9.869-32.18 6.52 9.57 17.51 15.776 29.733 15.776 19.816 0 35.937-16.12 35.937-35.936 0-12.2-6.18-23.17-15.719-29.695 2.189.41 4.433.618 6.712.618 9.599 0 18.624-3.739 25.411-10.526"/>
  <path fill="#FFB13B" d="M234.391 113.538c-8.049-8.048-21.099-8.048-29.148 0h-42.184l29.829-29.828c11.383 0 20.61-9.228 20.61-20.611 0-11.383-9.227-20.612-20.61-20.612-11.384 0-20.611 9.229-20.611 20.612l-29.829 29.829V50.743c8.049-8.049 8.049-21.099 0-29.148-8.05-8.05-21.1-8.05-29.149 0s-8.049 21.1 0 29.148v42.185l-29.828-29.83c0-11.382-9.228-20.61-20.611-20.61-11.383 0-20.611 9.228-20.611 20.61 0 11.384 9.228 20.612 20.61 20.612l29.83 29.828H50.504c-8.05-8.049-21.1-8.048-29.15 0-8.048 8.05-8.048 21.1 0 29.15 8.05 8.048 21.1 8.048 29.15 0h42.183L62.86 172.515c-11.383 0-20.611 9.227-20.611 20.61 0 11.384 9.228 20.612 20.61 20.612 11.384 0 20.612-9.228 20.612-20.611l29.828-29.829v42.184c-8.049 8.049-8.049 21.1 0 29.149 8.05 8.049 21.1 8.049 29.15 0 8.048-8.05 8.048-21.1 0-29.15v-42.183l29.828 29.829c0 11.383 9.227 20.61 20.61 20.61 11.384 0 20.612-9.227 20.612-20.61 0-11.384-9.228-20.611-20.611-20.611l-29.83-29.829h42.185c8.05 8.05 21.1 8.05 29.148 0 8.05-8.049 8.05-21.1 0-29.149"/>
</svg>
